X:1

T:Súisín Bán

T:White Blanket

M:4/4

L:1/8

S:O'Farrell's Pocket Companion 1804-10

Z:Paul Kinder

K:G

G>A|B2 E2 E2 D>E|G2 AB c3 A|B2 AG E2 D>E|A2 A2 A2 GA|

B3 A GEDE|G2 G2 G2:||:B2|cBcd efgf|edcB c3 A|B2 AG E2 D>E|

A2 A2 A2 G>A|B3 A GED>E|G2 G2 G2:||

 

WHITE BLANKET [3], THE (An Súisín Bán). Irish, Air (3/4 time). B Flat Major (O'Sullivan/Bunting). Standard tuning (fiddle). One part. O'Sullivan (1983) notes there are several versions of both air and words extant under different titles and refers to a list given in DOSB vol. 1, pg. 65 (in conjunction with the song "The Twisting of the Rope"). This air retains some currency among traditional musicians today. Source for notated version: the Irish collector Edward Bunting noted the melody at Deel Castle, Ballina, County Mayo, in 1792, according to the index of his 1840 collection. O'Sullivan/Bunting, 1983; No. 71, pp. 111-112. 

